tumble-dryer.svg

<svg fill="currentColor" viewBox="0 0 24 24"><path d="M6 2h12a2 2 0 0 1 2 2v16a2 2 0 0 1-2 2H6a2 2 0 0 1-2-2V4a2 2 0 0 1 2-2m1 2a1 1 0 0 0-1 1 1 1 0 0 0 1 1 1 1 0 0 0 1-1 1 1 0 0 0-1-1m3 0a1 1 0 0 0-1 1 1 1 0 0 0 1 1 1 1 0 0 0 1-1 1 1 0 0 0-1-1m2 4a6 6 0 0 0-6 6 6 6 0 0 0 6 6 6 6 0 0 0 6-6 6 6 0 0 0-6-6m-3.89 2.5H10c-.24 1.38 0 2.17.58 2.79 1.1 1.07 1.58 2.42 1.31 4.21H10c.24-1.38 0-2.17-.58-2.79-1.1-1.07-1.57-2.42-1.31-4.21m4 0H14c-.24 1.38 0 2.17.58 2.79 1.1 1.07 1.58 2.42 1.31 4.21H14c.24-1.38 0-2.17-.58-2.79-1.1-1.07-1.57-2.42-1.31-4.21"/></svg>

<svg  viewBox="0 0 24 24" fill="currentColor"><path  d="M6,2H18A2,2 0 0,1 20,4V20A2,2 0 0,1 18,22H6A2,2 0 0,1 4,20V4A2,2 0 0,1 6,2M7,4A1,1 0 0,0 6,5A1,1 0 0,0 7,6A1,1 0 0,0 8,5A1,1 0 0,0 7,4M10,4A1,1 0 0,0 9,5A1,1 0 0,0 10,6A1,1 0 0,0 11,5A1,1 0 0,0 10,4M12,8A6,6 0 0,0 6,14A6,6 0 0,0 12,20A6,6 0 0,0 18,14A6,6 0 0,0 12,8M8.11,10.5H10C9.76,11.88 10,12.67 10.58,13.29C11.68,14.36 12.16,15.71 11.89,17.5H10C10.24,16.12 10,15.33 9.42,14.71C8.32,13.64 7.85,12.29 8.11,10.5M12.11,10.5H14C13.76,11.88 14,12.67 14.58,13.29C15.68,14.36 16.16,15.71 15.89,17.5H14C14.24,16.12 14,15.33 13.42,14.71C12.32,13.64 11.85,12.29 12.11,10.5Z"/></svg>
